_src/static/img/icon/fb.svg

<svg width="11" height="20" viewBox="0 0 11 20" fill="none" xmlns="http://www.w3.org/2000/svg">
<path fill-rule="evenodd" clip-rule="evenodd" d="M7.51739 5.26382V7.50042H10.8222L10.2929 10.9483H7.51262V19.3224H3.78813V10.9483H0.759903V7.50042H3.78813V4.87277C3.78813 1.88269 5.56692 0.232666 8.28994 0.232666C9.59661 0.232666 10.9605 0.466341 10.9605 0.466341V3.39919H9.45832C7.9752 3.40396 7.51739 4.32435 7.51739 5.26382Z" fill="#1B3ACD"/>
</svg>

<svg width="11" height="20" fill="none" xmlns="http://www.w3.org/2000/svg"><path fill-rule="evenodd" clip-rule="evenodd" d="M7.517 5.264V7.5h3.305l-.53 3.448h-2.78v8.374H3.789v-8.374H.76V7.5h3.028V4.873c0-2.99 1.779-4.64 4.502-4.64 1.307 0 2.67.233 2.67.233V3.4H9.458c-1.483.005-1.94.925-1.94 1.865z" fill="#1B3ACD"/></svg>
